src/pos-icons/table-column-plus-after.svg

<svg height="24" viewBox="0 0 24 24" width="24" xmlns="http://www.w3.org/2000/svg"><path d="m11 2a2 2 0 0 1 2 2v16a2 2 0 0 1 -2 2h-9v-20zm-7 8v4h7v-4zm0 6v4h7v-4zm0-12v4h7v-4zm11 7h3v-3h2v3h3v2h-3v3h-2v-3h-3z"/></svg>

<?xml version="1.0" encoding="UTF-8"?><!DOCTYPE svg PUBLIC "-//W3C//DTD SVG 1.1//EN" "http://www.w3.org/Graphics/SVG/1.1/DTD/svg11.dtd"><svg xmlns="http://www.w3.org/2000/svg" xmlns:xlink="http://www.w3.org/1999/xlink" version="1.1" id="mdi-table-column-plus-after" width="24" height="24" viewBox="0 0 24 24"><path d="M11,2A2,2 0 0,1 13,4V20A2,2 0 0,1 11,22H2V2H11M4,10V14H11V10H4M4,16V20H11V16H4M4,4V8H11V4H4M15,11H18V8H20V11H23V13H20V16H18V13H15V11Z" /></svg>
